X: 1
T: Major Moran's
M: 4/4
L: 1/8
R: reel
K: Gmaj
B2BG ABGE|DGBG AGED|B2BA Bcde|1 dBAG EGDG:|2 dBAG EGDE||
G2GF G2BG|A2AG A2BA|Bded BcdB|1 AcBG AGEF:|2 AcBG AGEG||
Bdgd Bdgd|egdg egd2|Bdgd Bdgd|1 egfa ~g3d:|2 egfa gedc||
